!!!OTL: 1602. Den Wandergesellen Lob und Preis!
!!!ODT: 1840
!!!ARE: Europa, Mitteleuropa, Deutschland, Schlesien
!!!SCT: E1602
!!!TXL: @@DE
!!!YEM: Copyright 1995, estate of Helmut Schaffrath.
**kern	**text
*ICvox	*
*M2/4	*
*k[b-e-]	*
*B-:	*
!LO:TX:a:t=Schleſ. Volksmelodie vor 1840.	!
{8f	Friſch
=1	=1
8b-	auf,
8f	ins
8b-	wei-
8cc	-te
=2	=2
4.dd}	Feld!
{8b-	ʒu
=3	=3
8dd	Waſ-
8dd	-ſer
8dd	und
8ff	ʒu
=4	=4
(8.ee-L	Lan-
16ddJ)	.
8cc}	-de
{8ee-	hab
=5	=5
8dd	ich
8dd	mein'
8cc	Sinn
8b-	ge-
=6	=6
4cc	-ſtellt.
8r}	.
{8cc	ʒu
=7	=7
8cc	rei-
8cc	-ſen
8dd	und
8b-	ʒu
=8	=8
8.aL	wan-
16b-J	.
8cc}	-dern
{8cc	von
=9	=9
8cc	ei-
8cc	-ner
8dd	Stadt
8b-	ʒur
=10	=10
8.aL	an-
16b-J	.
8cc}	-dern,
{8ff	ſo
=11	=11
8dd	lang
8dd	es
8cc	Gott
8cc	ge-
=12	=12
4b-	-fällt.
8r}	.
==	==
!!!AGN: Staende -, Handwerker -, Gesellen - Lied; Wanderschaft
!!!ONB: ESAC (Essen Associative Code) Database: ERK3
!!!AMT: simple duple
!!!AIN: vox
!!!EED: Helmut Schaffrath
!!!EEV: 1.0
!!!GTL: Staendelieder (Berufslieder). 8. Handwerkerlieder.
!!!URL-scan: https://rosdok.uni-rostock.de/mcrviewer/recordIdentifier/rosdok_ppn745177999/iview2/phys_0428.iview2?x=-449.8344612962892&y=392.5258755038958&scale=0.47549036216460333&rotation=0&layout=singlePageLayout
!!!ENC: Anna Maria Matuszewska
!!!EEV: 2025/08/01
*-	*-
